;[name=opll]
#opll_mode 1
#tempo 75
#title { "ym2413_patch_change_midnote"}
#alloc 9=128
#alloc 10=112
#alloc 11=96
#alloc 12=96
#alloc 13=96
#alloc 14=96



;ch9 start
9 @1 v15 o4 a%60 @2 a%90
;ch9 end: tick count: 150


;ch10 start
10 @3 v13 o5 c%45
;ch10 end: tick count: 45


;ch11 start
;ch11 end: tick count: 0


;ch12 start
;ch12 end: tick count: 0


;ch13 start
;ch13 end: tick count: 0


;ch14 start
;ch14 end: tick count: 0
