;[name=psg lpf=1]
#opll_mode 1
#tempo 225
#title { "02_StartingPoint_log.psg"}
#alloc 1=624
#alloc 2=736
#alloc 3=1728



;ch1 start
1 /0 v0 o1 l64 r1r2r8r16r64
;tick count: 109

1 /1 s0 m1573 v8 o2 a+32 b32 o3 c32 c+32 d32 o2 a+32 b32 o3 c32
;tick count: 125

1 /1 s0 m1573 v8 c+32 d32 o2 b32 o3 c32 c+32 d32 d+32 o2 b32
;tick count: 141

1 /1 s0 m1573 v8 o3 c32 c+32 d32 d+32 c32 c+32 d32 d+32
;tick count: 157

1 /1 s0 m1573 v8 e32 c32 c+32 d32 d+32 e32 c+32 d32
;tick count: 173

1 /1 s0 m1573 v8 d+32 e32 f32 c+32 d32 d+32 e32 f32f64
;tick count: 190

1 /1 s0 m1573 v8 d32 d+32 e32 f32 f+32 d32 d+32 e32
;tick count: 206

1 /1 s0 m1573 v8 f32 f+32
;tick count: 210

1 /3 s0 m1573 n31 v12 g+64 f+64 e64 c+64 o2 g+64 f64 c+64 o1 g+64
;tick count: 218

1 /2 s0 m1573 n29 v12 g+64 g+64 g+64 g+64 g+64 g+64 g+64 g+64
;tick count: 226

1 /2 s0 m1573 n3 v12 g+64 g+64 v11 g+16g+32g+64 v10 g+16g+32g+64 v8 g+16g+32g+64 v6 g+16g+32g+64 v4 g+16g+32g+64 v3 g+16g+32g+64
;tick count: 270

;ch1 end: tick count: 270


;ch2 start
2 /0 v0 o1 l64 r1r2r8r16
;tick count: 108

2 /1 s0 m1573 v8 o2 a+32 b32 o3 c32 c+32 d32 o2 a+32 b32 o3 c32
;tick count: 124

2 /1 s0 m1573 v8 c+32 d32 o2 b32 o3 c32 c+32 d32d64 d+64 o2 b32
;tick count: 140

2 /1 s0 m1573 v8 o3 c32 c+32 d32 d+32d+64 c64 c+32 d32 d+32
;tick count: 156

2 /1 s0 m1573 v8 e32 c32c64 c+64 d32 d+32d+64 e64 c+32 d32d64
;tick count: 173

2 /1 s0 m1573 v8 d+64 e32 f32f64 c+32 d32 d+32 e32 f32
;tick count: 189

2 /1 s0 m1573 v8 d32 d+32 e32 f32 f+32 d32 d+32 e32
;tick count: 205

2 /1 s0 m1573 v8 f32 f+32 v14 c+64 c64 o2 g+64 f+64 f64 c+64
;tick count: 215

2 /1 s0 m1573 v14 o1 g+64 f+64 o3 c+64 c64 o2 g+64 f+64 f64 c+64
;tick count: 223

2 /1 s0 m1573 v14 o1 g+64 f+64 v12 o3 c+64 c64 o2 g+64 f+64 f64 c+64
;tick count: 231

2 /1 s0 m1573 v12 o1 g+64 f+64 o3 c+64 c64 o2 g+64 f+64 f64 c+64
;tick count: 239

2 /1 s0 m1573 v12 o1 g+64 f+64 v10 o3 c+64 c64 o2 g+64 f+64 f64 c+64
;tick count: 247

2 /1 s0 m1573 v10 o1 g+64 f+64 o3 c+64 c64 o2 g+64 f+64 f64 c+64
;tick count: 255

2 /1 s0 m1573 v10 o1 g+64 f+64
;ch2 end: tick count: 257


;ch3 start
3 /1 s0 m1573 v10 o4 l64 e16 o3 b16 o4 e16 f+16 o3 b16 o4 f+16 o5 e16 o4 b16
;tick count: 32

3 /1 s0 m1573 v10 o5 e16 f+16 o4 b16 o5 f+16 o4 b16 o5 e16 f+16 b16
;tick count: 64

3 /1 s0 m1573 v7 o4 b16 o5 e16 f+16 b16 v5 o4 b16 o5 e16 f+16 b8b64
;tick count: 101

3 /1 s0 m1573 v10 o1 c64 v9 c64 v8 c64 v7 c64 v6 c64 v11 o2 c64 v10 c64 v9 c64
;tick count: 109

3 /1 s0 m1573 v8 c64 v7 c64 v6 c64 v11 o1 c64 v10 c64 v9 c64 v8 c64 v7 c64
;tick count: 117

3 /1 s0 m1573 v6 c64 v11 o2 c64 v10 c64 v9 c64 v8 c64 v7 c64 v6 c64 v11 o1 c64
;tick count: 125

3 /1 s0 m1573 v10 c64 v9 c64 v8 c64 v7 c64 v6 c64 v11 o2 c64 v10 c64 v9 c64
;tick count: 133

3 /1 s0 m1573 v8 c64 v7 c64 v6 c32 v10 o1 c64 v9 c64 v8 c64 v7 c64 v6 c64
;tick count: 142

3 /1 s0 m1573 v11 o2 c64 v10 c64 v9 c64 v8 c64 v7 c64 v6 c32 v10 o1 c64 v9 c64
;tick count: 151

3 /1 s0 m1573 v8 c64 v7 c64 v6 c32 v10 o2 c64 v9 c64 v8 c64 v7 c64 v6 c32
;tick count: 161

3 /1 s0 m1573 v10 o1 c64 v9 c64 v8 c64 v7 c64 v6 c32 v10 o2 c64 v9 c64 v8 c64
;tick count: 170

3 /1 s0 m1573 v7 c64 v6 c32 v10 o1 c32 v9 c64 v8 c64 v7 c64 v6 c64 v11 o2 c64
;tick count: 180

3 /1 s0 m1573 v10 c64 v9 c64 v8 c64 v7 c64 v6 c64 v11 o1 c64 v10 c64 v9 c64
;tick count: 188

3 /1 s0 m1573 v8 c64 v7 c64 v6 c64 v11 o2 c64 v10 c64 v9 c64 v8 c64 v7 c64
;tick count: 196

3 /1 s0 m1573 v6 c64 v11 o1 c64 v10 c64 v9 c64 v8 c64 v7 c64 v6 c64 v11 o2 c64
;tick count: 204

3 /1 s0 m1573 v10 c64 v9 c64 v8 c64 v7 c64 v6 c64 v11 o1 c64 v10 c64 v9 c64
;tick count: 212

3 /1 s0 m1573 v8 c64 v7 c64 v6 c64 v11 o2 c64 v10 c64 v9 c64 v8 c64 v7 c64
;tick count: 220

3 /1 s0 m1573 v6 c64 v11 o1 c64 v10 c64 v9 c64 v8 c64 v7 c64 v6 c64 v11 o2 c64
;tick count: 228

3 /1 s0 m1573 v10 c64 v9 c64 v8 c64 v7 c64 v6 c64 v11 o1 c64 v10 c64 v9 c64
;tick count: 236

3 /1 s0 m1573 v8 c64 v7 c64 v6 c64 v11 o2 c64 v10 c64 v9 c64 v8 c64 v7 c64
;tick count: 244

3 /1 s0 m1573 v6 c64 v11 o1 c64 v10 c64 v9 c64 v8 c64 v7 c64 v6 c64 v11 o2 c64
;tick count: 252

3 /1 s0 m1573 v10 c64 v9 c64 v8 c64 v7 c64 v6 c64 v11 o1 c64 v10 c64 v9 c64
;tick count: 260

3 /1 s0 m1573 v8 c64 v7 c64 v6 c64 v11 o2 c64 v10 c64 v9 c64 v8 c64 v7 c64
;tick count: 268

3 /1 s0 m1573 v6 c64 v11 o1 c64 v10 c64 v9 c64 v8 c64 v7 c64 v6 c64 v11 o2 c64
;tick count: 276

3 /1 s0 m1573 v10 c64 v9 c64 v8 c64 v7 c64 v6 c64 v11 o1 c64 v10 c64 v9 c64
;tick count: 284

3 /1 s0 m1573 v8 c64 v7 c64 v6 c64 v11 c64 v10 c64 v9 c64 v8 c64 v7 c2c4c8c32
;tick count: 349

3 /1 s0 m1573 v6 c64 v5 c64 v4 c64 v3 c64
;ch3 end: tick count: 353
